src/icons/chevron-right.svg

<?xml version="1.0" encoding="UTF-8"?>
<svg width="512px" height="512px" viewBox="0 0 512 512" version="1.1" xmlns="http://www.w3.org/2000/svg" xmlns:xlink="http://www.w3.org/1999/xlink">
    <!-- Generator: Sketch 62 (91390) - https://sketch.com -->
    <title>chevron-right</title>
    <desc>Created with Sketch.</desc>
    <g id="chevron-right" stroke="none" stroke-width="1" fill="none" fill-rule="evenodd">
        <path d="M286.2,249.462522 L166.8,125.062522 C163.8,121.962522 163.9,116.862522 167,113.762522 L188.4,91.8625219 C191.5,88.7625219 196.5,88.6625219 199.5,91.6625219 L345.4,243.662522 C347,245.262522 347.7,247.362522 347.6,249.462522 C347.7,251.662522 347,253.662522 345.4,255.262522 L199.5,407.262522 C196.5,410.362522 191.5,410.262522 188.4,407.062522 L167,385.162522 C163.9,382.062522 163.9,376.962522 166.8,373.862522 L286.2,249.462522 Z" id="Path" fill="#000000" fill-rule="nonzero"></path>
    </g>
</svg>

<svg xmlns="http://www.w3.org/2000/svg" width="512" height="512" viewBox="0 0 512 512">
    <path d="M286.2 249.463l-119.4-124.4c-3-3.1-2.9-8.2.2-11.3l21.4-21.9c3.1-3.1 8.1-3.2 11.1-.2l145.9 152c1.6 1.6 2.3 3.7 2.2 5.8.1 2.2-.6 4.2-2.2 5.8l-145.9 152c-3 3.1-8 3-11.1-.2l-21.4-21.9c-3.1-3.1-3.1-8.2-.2-11.3l119.4-124.4z"/>
</svg>
